X:1
T:Title
%%score 1 { 2 | 3 }
L:1/8
Q:1/4=81
M:6/8
K:A
V:1 treble nm="Bright Piano"
V:2 bass nm="Bright Piano"
V:3 bass 
V:1
 [CE][CE][CA] [Ec]>[DB][CA] | [FA][EG][DF] .[CE]3 | [EG][EG][EG] [EG][EF][EG] | [EA]6 | %4
 [CE][CE][CA] [Ec]>[DB][CA] | [FA][EG][DF] .[CE]3 | [EG][EG][EG] [EG][EF][EG] | [EA]6 | %8
 [Ec][Ec][Ec] [Ec][DB][CA] | [EB]6 | [Fd][Fd][Fd] [Ed][Ec][EB] | [Ec]6 | %12
 [CE][CE][CA] [Ec]>[DB][CA] | [FA][EG][DF] .[CE]3 | [EG][EG][EG] [EG][EF][EG] | [EA]6 |] %16
V:2
 A,A,E, A,>G,A, | A,A,A, .A,3 | B,B,B, B,A,B, | C6 | A,A,E, A,>G,A, | A,A,A, .A,3 | B,B,B, B,A,B, | %7
 C6 | A,A,A, A,G,A, | G,6 | B,B,B, B,A,G, | A,6 | A,A,E, .A,>G,A, | A,2 A, .A,3 | B,B,B, B,A,B, | %15
 C6 |] %16
V:3
 A,,A,,A,, A,,>E,F, | D,D,F, z3 | E,E,E, E,E,E, | A,,6 | A,,A,,A,, A,,>E,F, | D,D,F, z3 | %6
 E,E,E, E,E,E, | A,,6 | z3 z E,F, | E,6 | z2 A, .G,2 E, | z6 | A,,A,,A,, A,,>E,F, | D,2 F, z3 | %14
 E,E,E, E,E,E, | A,,6 |] %16

